symbols/web/dvr/materialsymbolsrounded/dvr_wght300gradN25_48px.svg

<svg xmlns="http://www.w3.org/2000/svg" height="48" width="48"><path d="M19.25 19.1h15.1q.45 0 .75-.3t.3-.8q0-.45-.3-.75t-.75-.3h-15.1q-.45 0-.775.3t-.325.75q0 .5.325.8.325.3.775.3Zm0 8h15.1q.45 0 .75-.325t.3-.775q0-.5-.3-.8-.3-.3-.75-.3h-15.1q-.45 0-.775.325T18.15 26q0 .45.325.775t.775.325Zm-5.2-7.75q.55 0 .95-.375.4-.375.4-.975 0-.55-.375-.925t-.975-.375q-.55 0-.95.375-.4.375-.4.925t.375.95q.375.4.975.4Zm0 7.95q.55 0 .95-.375.4-.375.4-.925t-.375-.95q-.375-.4-.975-.4-.55 0-.95.4-.4.4-.4.95 0 .55.375.925t.975.375Zm4.8 13.55q-.6 0-1-.375t-.4-1.025V36.9h-9.5q-1.15 0-1.975-.85-.825-.85-.825-2V9.95q0-1.15.825-1.975Q6.8 7.15 7.95 7.15h32.1q1.15 0 1.975.825.825.825.825 1.975v24.1q0 1.15-.825 2-.825.85-1.975.85h-9.5v2.55q0 .65-.4 1.025-.4.375-1 .375ZM7.95 34.7h32.1q.25 0 .425-.175t.175-.475V9.95q0-.25-.175-.425t-.425-.175H7.95q-.25 0-.425.175t-.175.425v24.1q0 .3.175.475t.425.175Zm-.6 0V9.35 34.7Z"/></svg>

<svg xmlns="http://www.w3.org/2000/svg" height="48" width="48"><path d="M19.25 19.1H34.35Q34.8 19.1 35.1 18.8Q35.4 18.5 35.4 18Q35.4 17.55 35.1 17.25Q34.8 16.95 34.35 16.95H19.25Q18.8 16.95 18.475 17.25Q18.15 17.55 18.15 18Q18.15 18.5 18.475 18.8Q18.8 19.1 19.25 19.1ZM19.25 27.1H34.35Q34.8 27.1 35.1 26.775Q35.4 26.45 35.4 26Q35.4 25.5 35.1 25.2Q34.8 24.9 34.35 24.9H19.25Q18.8 24.9 18.475 25.225Q18.15 25.55 18.15 26Q18.15 26.45 18.475 26.775Q18.8 27.1 19.25 27.1ZM14.05 19.35Q14.6 19.35 15 18.975Q15.4 18.6 15.4 18Q15.4 17.45 15.025 17.075Q14.65 16.7 14.05 16.7Q13.5 16.7 13.1 17.075Q12.7 17.45 12.7 18Q12.7 18.55 13.075 18.95Q13.45 19.35 14.05 19.35ZM14.05 27.3Q14.6 27.3 15 26.925Q15.4 26.55 15.4 26Q15.4 25.45 15.025 25.05Q14.65 24.65 14.05 24.65Q13.5 24.65 13.1 25.05Q12.7 25.45 12.7 26Q12.7 26.55 13.075 26.925Q13.45 27.3 14.05 27.3ZM18.85 40.85Q18.25 40.85 17.85 40.475Q17.45 40.1 17.45 39.45V36.9H7.95Q6.8 36.9 5.975 36.05Q5.15 35.2 5.15 34.05V9.95Q5.15 8.8 5.975 7.975Q6.8 7.15 7.95 7.15H40.05Q41.2 7.15 42.025 7.975Q42.85 8.8 42.85 9.95V34.05Q42.85 35.2 42.025 36.05Q41.2 36.9 40.05 36.9H30.55V39.45Q30.55 40.1 30.15 40.475Q29.75 40.85 29.15 40.85ZM7.95 34.7H40.05Q40.3 34.7 40.475 34.525Q40.65 34.35 40.65 34.05V9.95Q40.65 9.7 40.475 9.525Q40.3 9.35 40.05 9.35H7.95Q7.7 9.35 7.525 9.525Q7.35 9.7 7.35 9.95V34.05Q7.35 34.35 7.525 34.525Q7.7 34.7 7.95 34.7ZM7.35 34.7Q7.35 34.7 7.35 34.525Q7.35 34.35 7.35 34.05V9.95Q7.35 9.7 7.35 9.525Q7.35 9.35 7.35 9.35Q7.35 9.35 7.35 9.525Q7.35 9.7 7.35 9.95V34.05Q7.35 34.35 7.35 34.525Q7.35 34.7 7.35 34.7Z"/></svg>
